dist/img/sprites/q-input-pen.svg

<svg width="20" height="20" viewBox="0 0 20 20" fill="none" xmlns="http://www.w3.org/2000/svg">
<g clip-path="url(#clip0_2624_13648)">
<path d="M17.2181 1.37384C16.2101 0.367575 14.5777 0.367575 13.5697 1.37384L12.6564 2.29213L2.93451 12.0088L2.91385 12.0297C2.90884 12.0347 2.90884 12.04 2.90352 12.04C2.89318 12.0555 2.87769 12.0708 2.86752 12.0863C2.86752 12.0915 2.86219 12.0915 2.86219 12.0967C2.85186 12.1122 2.84686 12.1225 2.83637 12.138C2.83136 12.1431 2.83136 12.1481 2.8262 12.1535C2.82103 12.169 2.81587 12.1793 2.81054 12.1948C2.81054 12.1998 2.80554 12.1998 2.80554 12.2051L0.648544 18.6914C0.585269 18.8761 0.633371 19.0806 0.772349 19.2177C0.870005 19.314 1.00172 19.3679 1.13876 19.3674C1.19477 19.3665 1.2503 19.3578 1.30389 19.3416L7.7852 17.1795C7.7902 17.1795 7.7902 17.1795 7.79553 17.1745C7.81183 17.1696 7.82749 17.1627 7.84185 17.1536C7.84589 17.1532 7.84944 17.1514 7.85235 17.1486C7.86768 17.1383 7.88834 17.1278 7.90384 17.1175C7.91917 17.1073 7.93483 17.0918 7.95033 17.0815C7.95549 17.0762 7.96049 17.0762 7.96049 17.0712C7.96582 17.066 7.97615 17.061 7.98132 17.0505L18.6165 6.41532C19.6227 5.40728 19.6227 3.77489 18.6165 2.76701L17.2181 1.37384ZM7.62007 15.9667L4.02858 12.3754L13.0176 3.38636L16.6091 6.97769L7.62007 15.9667ZM3.5227 13.33L6.66029 16.4675L1.94891 18.0361L3.5227 13.33ZM17.889 5.69283L17.342 6.24503L13.7503 2.65338L14.3027 2.10134C14.9068 1.49764 15.8861 1.49764 16.4905 2.10134L17.894 3.50484C18.4936 4.11176 18.4914 5.08881 17.889 5.69283Z" fill="black"/>
</g>
<defs>
<clipPath id="clip0_2624_13648">
<rect width="20" height="20" fill="white"/>
</clipPath>
</defs>
</svg>

<svg width="20" height="20" viewBox="0 0 20 20" fill="none" xmlns="http://www.w3.org/2000/svg"><g clip-path="url(#clip0_2624_13648)"><path d="M17.218 1.374a2.582 2.582 0 00-3.648 0l-.914.918-9.721 9.717-.021.02c-.005.006-.005.011-.01.011-.01.016-.026.03-.036.046 0 .005-.006.005-.006.01-.01.016-.015.027-.026.042-.005.005-.005.01-.01.015l-.015.042c0 .005-.005.005-.005.01L.649 18.691a.508.508 0 00.123.527.52.52 0 00.532.124l6.481-2.162c.005 0 .005 0 .01-.006a.187.187 0 00.047-.02.017.017 0 00.01-.005l.052-.032c.015-.01.03-.025.046-.036.005-.005.01-.005.01-.01.006-.005.016-.01.021-.02L18.616 6.415a2.582 2.582 0 000-3.648l-1.398-1.393zM7.62 15.967l-3.59-3.592 8.989-8.989 3.591 3.592-8.989 8.989zM3.523 13.33l3.137 3.138-4.711 1.568 1.574-4.706zm14.366-7.637l-.547.552-3.592-3.592.553-.552a1.548 1.548 0 012.188 0l1.403 1.404c.6.607.597 1.584-.005 2.188z" fill="#000"/></g><defs><clipPath id="clip0_2624_13648"><path fill="#fff" d="M0 0h20v20H0z"/></clipPath></defs></svg>
